public/images/brand/brand-light-06.svg

<svg width="106" height="32" viewBox="0 0 106 32" fill="none" xmlns="http://www.w3.org/2000/svg">
<g clip-path="url(#clip0_14_33)">
<path fill-rule="evenodd" clip-rule="evenodd" d="M65.6804 24.9269C59.5505 29.4588 50.6352 31.8737 42.9452 31.8737C32.6876 31.9247 22.7795 28.1494 15.1568 21.2855C14.6 20.7655 15.082 20.059 15.791 20.4687C23.1727 24.7167 31.4374 27.1988 39.9382 27.7208C48.439 28.2427 56.9453 26.7903 64.7913 23.4772C65.8288 23.0701 66.6837 24.1888 65.6804 24.9269Z" fill="#757693"  />
<path fill-rule="evenodd" clip-rule="evenodd" d="M68.2438 21.9921C67.4638 20.9888 63.0435 21.5088 61.0738 21.7688C60.4789 21.8437 60.3673 21.3236 60.9254 20.952C64.4552 18.4635 70.2123 19.2055 70.882 20.0236C71.5517 20.8417 70.6968 26.6368 67.3902 29.3853C66.8702 29.7937 66.3869 29.5705 66.6101 29.0137C67.3521 27.1568 69.0238 23.0321 68.2438 21.9921Z" fill="#757693"  />
<path fill-rule="evenodd" clip-rule="evenodd" d="M61.1853 3.49177V1.0819C61.1811 1.00268 61.1936 0.923462 61.222 0.849387C61.2504 0.775312 61.2941 0.708041 61.3502 0.651942C61.4063 0.595844 61.4736 0.552152 61.5476 0.523744C61.6217 0.495337 61.7009 0.482847 61.7802 0.48705H72.5497C72.7124 0.482927 72.8702 0.543011 72.9889 0.654342C73.1076 0.765674 73.1776 0.919289 73.1839 1.0819V3.12521C73.1839 3.46005 72.8871 3.90526 72.3671 4.64725L66.7952 12.5973C68.9186 12.4829 71.0346 12.93 72.9303 13.8935C73.0948 13.9877 73.2324 14.1225 73.3299 14.2851C73.4274 14.4476 73.4815 14.6325 73.4871 14.822V17.3853C73.4871 17.757 73.1154 18.1654 72.707 17.9421C70.9492 17.0323 68.9977 16.5605 67.0184 16.5669C65.0391 16.5733 63.0906 17.0577 61.3388 17.9789C61.2501 18.0106 61.1551 18.0205 61.0618 18.0075C60.9685 17.9945 60.8798 17.9592 60.8031 17.9045C60.7265 17.8498 60.6642 17.7773 60.6217 17.6933C60.5791 17.6093 60.5575 17.5163 60.5587 17.4221V14.9666C60.5222 14.3924 60.6649 13.8211 60.9671 13.3316L67.4357 4.08154H61.8258C61.6631 4.08567 61.5054 4.02558 61.3867 3.91425C61.268 3.80292 61.1979 3.64931 61.1916 3.48669L61.1853 3.49177ZM21.9183 18.4584H18.6447C18.4982 18.4437 18.3606 18.3812 18.2531 18.2806C18.1456 18.18 18.0742 18.0467 18.0499 17.9015V1.11488C18.0561 0.952267 18.1262 0.798652 18.2449 0.687321C18.3636 0.575989 18.5214 0.515906 18.684 0.520029H21.7281C21.8788 0.522078 22.0233 0.58027 22.1333 0.683256C22.2433 0.786243 22.311 0.926604 22.3229 1.07683V3.26854H22.3978C22.687 2.36254 23.2568 1.57194 24.0248 1.01095C24.7927 0.449964 25.7192 0.147628 26.6702 0.147628C27.6213 0.147628 28.5477 0.449964 29.3157 1.01095C30.0837 1.57194 30.6534 2.36254 30.9427 3.26854C31.2686 2.33448 31.8836 1.5285 32.6984 0.967482C33.5133 0.406465 34.4856 0.119579 35.4745 0.148402C36.2086 0.133591 36.9356 0.294495 37.5948 0.617725C38.2541 0.940955 38.8265 1.41714 39.2643 2.00654C40.3044 3.41821 40.0812 5.46153 40.0812 7.28161V17.9066C40.0749 18.0692 40.0048 18.2228 39.8861 18.3342C39.7674 18.4455 39.6097 18.5056 39.447 18.5015H36.2152C36.0605 18.4922 35.9146 18.4265 35.805 18.3169C35.6954 18.2073 35.6297 18.0613 35.6204 17.9066V8.99135C35.6702 7.93817 35.6452 6.88279 35.5455 5.83316C35.4774 5.38684 35.2369 4.98507 34.8757 4.71421C34.5144 4.44336 34.0614 4.32504 33.6138 4.3847C33.1874 4.39701 32.7739 4.53368 32.4241 4.77796C32.0744 5.02224 31.8037 5.36345 31.6453 5.75957C31.3761 6.81436 31.276 7.90517 31.3485 8.99135V17.9066C31.3423 18.0692 31.2722 18.2228 31.1535 18.3342C31.0348 18.4455 30.8771 18.5056 30.7144 18.5015H27.4458C27.2911 18.4922 27.1452 18.4265 27.0356 18.3169C26.9259 18.2073 26.8603 18.0613 26.851 17.9066V8.99135C26.851 7.13321 27.1478 4.34793 24.8444 4.34793C22.5043 4.34793 22.5779 7.02286 22.5779 8.99135V17.9066C22.5545 18.0654 22.4735 18.2101 22.3501 18.3128C22.2268 18.4156 22.0699 18.4692 21.9095 18.4634L21.9183 18.4584ZM82.4721 0.143331C87.3387 0.143331 89.9769 4.30352 89.9769 9.61666C89.9769 14.7433 87.0787 18.83 82.4721 18.83C77.717 18.83 75.1156 14.6698 75.1156 9.46826C75.0788 4.22995 77.7157 0.143331 82.4721 0.143331ZM82.4721 3.59833C80.0622 3.59833 79.9087 6.90491 79.9087 8.94823C79.9087 10.9915 79.872 15.375 82.4353 15.375C84.9619 15.375 85.1102 11.8451 85.1102 9.69148C85.1559 8.1902 84.9933 6.68986 84.627 5.23324C84.5255 4.74698 84.2513 4.31395 83.8551 4.01431C83.4589 3.71467 82.9676 3.56869 82.4721 3.6034V3.59833ZM96.254 18.4584H92.9855C92.8307 18.449 92.6848 18.3833 92.5752 18.2737C92.4656 18.1641 92.3999 18.0182 92.3906 17.8635V1.04006C92.4111 0.886268 92.4867 0.745099 92.6033 0.64273C92.7199 0.540361 92.8696 0.483692 93.0248 0.483218H96.0688C96.2071 0.48784 96.3401 0.537599 96.4475 0.624847C96.5549 0.712096 96.6308 0.83206 96.6637 0.966476V3.52981H96.7385C97.6669 1.22648 98.9302 0.14964 101.197 0.14964C101.951 0.115377 102.701 0.279054 103.372 0.624383C104.043 0.969712 104.613 1.48468 105.023 2.11813C105.878 3.45624 105.878 5.72153 105.878 7.35644V17.9446C105.856 18.0945 105.779 18.2307 105.661 18.3268C105.544 18.4229 105.395 18.472 105.244 18.4647H101.976C101.834 18.4513 101.701 18.394 101.594 18.3006C101.487 18.2073 101.413 18.0828 101.381 17.9446V8.80617C101.381 6.9493 101.604 4.27434 99.3374 4.27434C98.927 4.29349 98.5306 4.42949 98.1949 4.66633C97.8592 4.90317 97.5981 5.23097 97.4425 5.61117C97.0451 6.62739 96.8678 7.71638 96.9224 8.80617V17.8711C96.9019 18.0344 96.8228 18.1846 96.6999 18.294C96.577 18.4034 96.4186 18.4645 96.254 18.466V18.4584ZM52.6036 10.4335C52.725 11.6298 52.5194 12.8366 52.0088 13.9253C51.8016 14.3555 51.4811 14.7212 51.0818 14.9831C50.6825 15.245 50.2194 15.3932 49.7422 15.4118C48.4739 15.4118 47.7357 14.4453 47.7357 13.0336C47.7357 10.2432 50.2242 9.72701 52.6024 9.72701L52.6036 10.4335ZM55.9102 18.4241C55.8043 18.5166 55.6721 18.5735 55.5322 18.5869C55.3923 18.6004 55.2517 18.5696 55.1302 18.4989C54.3735 17.8866 53.7318 17.1444 53.2353 16.3072C52.5875 17.0991 51.7622 17.7272 50.8263 18.1404C49.8903 18.5536 48.8702 18.7403 47.8486 18.6854C47.1782 18.7247 46.5073 18.6185 45.8819 18.3739C45.2565 18.1294 44.6914 17.7524 44.2256 17.2688C43.7597 16.7852 43.404 16.2065 43.183 15.5724C42.9619 14.9383 42.8808 14.2639 42.9451 13.5955C42.9066 12.4529 43.2212 11.3263 43.846 10.369C44.4708 9.41169 45.3755 8.67023 46.4369 8.24558C48.4308 7.58421 50.5054 7.19675 52.6036 7.09389V6.68549C52.7147 5.86964 52.5721 5.03938 52.1952 4.30732C51.9816 4.03039 51.7051 3.80835 51.3886 3.65968C51.072 3.511 50.7246 3.43996 50.3751 3.45244C49.7704 3.39967 49.1675 3.57113 48.681 3.93411C48.1945 4.29709 47.8585 4.82626 47.7369 5.42093C47.6621 5.71772 47.4769 6.01578 47.1801 6.01578L44.0219 5.68096C43.9456 5.67024 43.8723 5.64422 43.8064 5.60448C43.7404 5.56473 43.6831 5.51207 43.638 5.44965C43.5929 5.38723 43.5608 5.31632 43.5437 5.24121C43.5267 5.1661 43.525 5.08832 43.5387 5.01253C44.2819 1.14912 47.7369 -0.00255581 50.8571 -0.00255581C52.6502 -0.0792313 54.4094 0.502231 55.8037 1.63235C57.4005 3.11887 57.2521 5.12413 57.2521 7.27906V12.369C57.2729 13.4999 57.7096 14.5836 58.4786 15.413C58.7019 15.7098 58.7386 16.0814 58.4786 16.2679C57.7671 16.8285 56.5786 17.8685 55.9102 18.4266V18.4241ZM9.69648 10.4335C9.8179 11.6298 9.6123 12.8366 9.10161 13.9253C8.89442 14.3555 8.57397 14.7212 8.17465 14.9831C7.77534 15.245 7.31225 15.3932 6.83508 15.4118C5.56672 15.4118 4.82854 14.4453 4.82854 13.0336C4.82854 10.2432 7.31704 9.72701 9.6952 9.72701L9.69648 10.4335ZM12.9663 18.4241C12.8604 18.5166 12.7282 18.5735 12.5883 18.5869C12.4484 18.6004 12.3078 18.5696 12.1863 18.4989C11.4296 17.8866 10.7879 17.1444 10.2913 16.3072C9.64358 17.0991 8.81826 17.7272 7.88234 18.1404C6.94641 18.5536 5.92625 18.7403 4.90464 18.6854C4.23429 18.7247 3.56337 18.6185 2.93797 18.3739C2.31257 18.1294 1.74752 17.7524 1.28163 17.2688C0.81575 16.7852 0.460071 16.2065 0.23904 15.5724C0.01801 14.9383 -0.0631272 14.2639 0.00118522 13.5955C-0.0373272 12.4529 0.277234 11.3263 0.902054 10.369C1.52687 9.41169 2.43157 8.67023 3.49295 8.24558C5.48689 7.58421 7.56144 7.19675 9.65969 7.09389V6.68549C9.77074 5.86964 9.62817 5.03938 9.25129 4.30732C9.03773 4.03039 8.76119 3.80835 8.44465 3.65968C8.12811 3.511 7.78068 3.43996 7.43118 3.45244C6.82651 3.39967 6.22356 3.57113 5.73709 3.93411C5.25062 4.29709 4.91461 4.82626 4.79303 5.42093C4.71819 5.71772 4.533 6.01578 4.23621 6.01578L1.07802 5.68096C1.00174 5.67024 0.928413 5.64422 0.862437 5.60448C0.796462 5.56473 0.739189 5.51207 0.694061 5.44965C0.648934 5.38723 0.616873 5.31632 0.59981 5.24121C0.582747 5.1661 0.581029 5.08832 0.594758 5.01253C1.33801 1.14912 4.79302 -0.00255581 7.91317 -0.00255581C9.70625 -0.0792313 11.4655 0.502231 12.8598 1.63235C14.4566 3.11887 14.3082 5.12413 14.3082 7.27906V12.369C14.3291 13.4999 14.7657 14.5835 15.5347 15.413C15.7579 15.7098 15.7947 16.0814 15.5347 16.2679C14.8282 16.8247 13.6398 17.8648 12.9714 18.4241H12.9663Z" fill="#757693"  />
</g>
<defs>
<clipPath id="clip0_14_33">
<rect width="105.876" height="31.875" fill="white"/>
</clipPath>
</defs>
</svg>

<svg xmlns="http://www.w3.org/2000/svg" width="106" height="32" fill="none"><g fill="#757693" fill-rule="evenodd" clip-path="url(#a)" clip-rule="evenodd"><path d="M65.68 24.927c-6.13 4.532-15.045 6.947-22.735 6.947a41.22 41.22 0 0 1-27.788-10.588c-.557-.52-.075-1.227.634-.817a55.2 55.2 0 0 0 49 3.008c1.038-.407 1.893.712.89 1.45"/><path d="M68.244 21.992c-.78-1.003-5.2-.483-7.17-.223-.595.075-.707-.445-.149-.817 3.53-2.489 9.287-1.747 9.957-.928.67.818-.185 6.613-3.492 9.361-.52.409-1.003.185-.78-.371.742-1.857 2.414-5.982 1.634-7.022m-7.059-18.5v-2.41a.566.566 0 0 1 .595-.595h10.77a.62.62 0 0 1 .634.595v2.043c0 .335-.297.78-.817 1.522l-5.572 7.95a12.1 12.1 0 0 1 6.135 1.297 1.11 1.11 0 0 1 .557.928v2.563c0 .372-.372.78-.78.557a12.29 12.29 0 0 0-11.368.037.584.584 0 0 1-.78-.557v-2.455a2.8 2.8 0 0 1 .408-1.635l6.469-9.25h-5.61a.62.62 0 0 1-.634-.595zM21.918 18.458h-3.273a.67.67 0 0 1-.595-.556V1.114a.62.62 0 0 1 .634-.595h3.044a.605.605 0 0 1 .595.557v2.192h.075a4.485 4.485 0 0 1 8.545 0 4.66 4.66 0 0 1 4.531-3.12 4.6 4.6 0 0 1 3.79 1.858c1.04 1.411.817 3.455.817 5.275v10.625a.62.62 0 0 1-.634.595h-3.232a.634.634 0 0 1-.595-.595V8.99q.075-1.581-.075-3.158a1.724 1.724 0 0 0-1.931-1.448 2.19 2.19 0 0 0-1.969 1.375 10.3 10.3 0 0 0-.296 3.231v8.916a.62.62 0 0 1-.635.595h-3.268a.634.634 0 0 1-.595-.595V8.99c0-1.858.297-4.643-2.007-4.643-2.34 0-2.266 2.675-2.266 4.643v8.916a.65.65 0 0 1-.668.556zM82.472.143c4.867 0 7.505 4.16 7.505 9.474 0 5.126-2.898 9.213-7.505 9.213-4.755 0-7.356-4.16-7.356-9.362-.037-5.238 2.6-9.325 7.356-9.325m0 3.455c-2.41 0-2.563 3.307-2.563 5.35s-.037 6.427 2.526 6.427c2.527 0 2.675-3.53 2.675-5.684a16.3 16.3 0 0 0-.483-4.458 2.055 2.055 0 0 0-2.155-1.63zm13.782 14.86h-3.269a.635.635 0 0 1-.594-.594V1.04a.64.64 0 0 1 .634-.557h3.044a.634.634 0 0 1 .595.483V3.53h.075c.928-2.304 2.191-3.38 4.458-3.38a4.32 4.32 0 0 1 3.826 1.968c.855 1.338.855 3.604.855 5.238v10.589a.61.61 0 0 1-.634.52h-3.268a.68.68 0 0 1-.595-.52V8.806c0-1.857.223-4.532-2.044-4.532a2.16 2.16 0 0 0-1.895 1.337 7.7 7.7 0 0 0-.52 3.195v9.065a.68.68 0 0 1-.668.595zm-43.65-8.024a6.64 6.64 0 0 1-.595 3.491 2.63 2.63 0 0 1-2.267 1.487c-1.268 0-2.006-.967-2.006-2.378 0-2.79 2.488-3.307 4.866-3.307zm3.306 7.99a.67.67 0 0 1-.78.075 8.2 8.2 0 0 1-1.895-2.192 6.51 6.51 0 0 1-5.386 2.378 4.652 4.652 0 0 1-4.904-5.09 5.56 5.56 0 0 1 3.492-5.35 23.2 23.2 0 0 1 6.167-1.151v-.409a4 4 0 0 0-.409-2.378 2.2 2.2 0 0 0-1.82-.855 2.473 2.473 0 0 0-2.638 1.969c-.075.297-.26.595-.557.595l-3.158-.335a.57.57 0 0 1-.483-.668c.743-3.864 4.198-5.016 7.318-5.016a7.36 7.36 0 0 1 4.947 1.635C57.4 3.12 57.252 5.124 57.252 7.28v5.09a4.6 4.6 0 0 0 1.227 3.044c.223.297.26.668 0 .855-.712.56-1.9 1.6-2.569 2.159zm-46.214-7.99a6.64 6.64 0 0 1-.594 3.491 2.63 2.63 0 0 1-2.267 1.487c-1.268 0-2.006-.967-2.006-2.378 0-2.79 2.488-3.307 4.866-3.307zm3.27 7.99a.67.67 0 0 1-.78.075 8.2 8.2 0 0 1-1.895-2.192 6.5 6.5 0 0 1-5.386 2.378A4.652 4.652 0 0 1 0 13.595a5.56 5.56 0 0 1 3.492-5.35 23.2 23.2 0 0 1 6.168-1.15v-.409a4 4 0 0 0-.409-2.378 2.2 2.2 0 0 0-1.82-.855 2.473 2.473 0 0 0-2.638 1.969c-.075.297-.26.595-.557.595L1.078 5.68a.57.57 0 0 1-.483-.668C1.338 1.149 4.793-.003 7.913-.003a7.36 7.36 0 0 1 4.947 1.635c1.597 1.487 1.448 3.492 1.448 5.647v5.09a4.6 4.6 0 0 0 1.227 3.044c.223.297.26.668 0 .855-.707.557-1.895 1.597-2.564 2.156z"/></g><defs><clipPath id="a"><path fill="#fff" d="M0 0h105.876v31.875H0z"/></clipPath></defs></svg>
